src/modules/45-projects-orgs/pages/LandingDashboardPageV2/ModuleOverview/images/pipeline_slo.svg

<svg fill="none" viewBox="0 0 177 75" xmlns="http://www.w3.org/2000/svg" xmlns:xlink="http://www.w3.org/1999/xlink"><linearGradient id="a" gradientUnits="userSpaceOnUse" x1="-9.53808" x2="-4.38982" y1="81.614" y2="-3.46044"><stop offset=".202924" stop-color="#f6fbf7" stop-opacity="0"/><stop offset=".302721" stop-color="#f6f8fb"/><stop offset=".770833" stop-color="#eef3fa"/><stop offset=".970684" stop-color="#eef3fa" stop-opacity="0"/></linearGradient><linearGradient id="b" gradientUnits="userSpaceOnUse" x1="79.7816" x2="67.5256" y1="80.9295" y2="44.5456"><stop offset=".202924" stop-color="#f6f8fb" stop-opacity="0"/><stop offset=".565962" stop-color="#f6f8fb"/><stop offset=".779906" stop-color="#eef3fa"/><stop offset="1" stop-color="#eef3fa"/></linearGradient><linearGradient id="c" gradientUnits="userSpaceOnUse" x1="16.697" x2="80.0411" y1="23.34" y2="9.51415"><stop offset=".116934" stop-color="#f6f8fb" stop-opacity="0"/><stop offset=".315365" stop-color="#f6f8fb"/><stop offset=".779906" stop-color="#eef3fa"/><stop offset="1" stop-color="#eef3fa"/></linearGradient><linearGradient id="d" gradientUnits="userSpaceOnUse" x1="-3.77219" x2="161.663" y1="73.0565" y2="-20.1442"><stop offset=".0610648" stop-color="#cf9eff" stop-opacity="0"/><stop offset=".281259" stop-color="#cf9eff" stop-opacity=".34"/><stop offset=".486626" stop-color="#cf9eff"/><stop offset=".902699" stop-color="#cf9eff"/><stop offset="1" stop-color="#cf9eff" stop-opacity="0"/></linearGradient><linearGradient id="e" gradientUnits="userSpaceOnUse" x1="93.3619" x2="47.1857" y1="26.4072" y2="-9.67591"><stop offset=".227656" stop-color="#cf9eff"/><stop offset=".53213" stop-color="#cf9eff" stop-opacity=".35"/><stop offset=".837782" stop-color="#cf9eff" stop-opacity="0"/></linearGradient><linearGradient id="f" gradientUnits="userSpaceOnUse" x1="89.0364" x2="97.2544" y1="25.0741" y2="72.6111"><stop offset=".236751" stop-color="#cf9eff"/><stop offset=".677083" stop-color="#cf9eff" stop-opacity="0"/></linearGradient><g clip-rule="evenodd" fill-rule="evenodd"><path d="m175.089 5.15023c.26.5315-.051 1.13654-.695 1.3514-2.854.95183-10.173 3.72017-18.548 6.88757-5.309 2.0078-11.042 4.1759-16.33 6.1434-26.818 9.9781-65.7496 24.733-95.6844 36.078-19.5947 7.4262-35.33439 13.3914-41.29822 15.5996-.63395.2347-1.37851.001-1.663009-.522-.284504-.5231-.001223-1.1374.632729-1.3721 5.99689-2.2204 21.7383-8.1863 41.3297-15.6115 29.9003-11.3321 68.7682-26.063 95.6492-36.0645 5.213-1.9398 10.899-4.09 16.189-6.0907 8.442-3.19259 15.877-6.00435 18.78-6.97249.644-.21486 1.377.04183 1.638.57332z" fill="url(#a)"/><path d="m92.8789 36.7819c.1769-.5544.865-.8856 1.537-.7397l-.3202 1.0039-.3202 1.0038c-.672-.1459-1.0734-.7136-.8966-1.268zm24.6741 3.7503c-5.32-.889-11.098-2.0099-15.554-2.9105-2.2309-.4509-4.1277-.8459-5.4665-1.1283-.6693-.1411-1.1991-.254-1.5613-.3316-.181-.0388-.3202-.0688-.4139-.089-.0469-.0101-.0824-.0178-.1061-.0229l-.0353-.0077c-.0001 0 0 0-.3202 1.0039-.3202 1.0038-.3202 1.0038-.32 1.0039l.037.008c.0243.0053.0605.0131.108.0233.0951.0205.2356.0508.4181.0899.365.0782.8979.1918 1.5706.3336 1.3454.2837 3.2504.6805 5.4906 1.1333 4.478.905 10.306 2.0358 15.682 2.9336l.029.0048.03.0037c1.043.1324 2.403.4324 3.253.8527.426.2109.544.3645.564.4042v.0018c-.005.018-.031.0959-.161.2349 0-.0004-.001.0004-.004.0027-.022.0179-.152.1236-.491.3403-.341.2181-.809.4971-1.399.834-1.179.6726-2.797 1.5495-4.755 2.5852-3.915 2.0703-9.146 4.7534-14.8417 7.6643-1.0837.5539-2.1844 1.116-3.2959 1.6837-10.5573 5.392-22.0969 11.2856-29.4949 15.363-.5778.3185-.7333.9631-.3473 1.4398.3859.4767 1.1672.605 1.745.2865 7.3589-4.0558 18.8586-9.9291 29.4283-15.3275 1.1088-.5663 2.2074-1.1274 3.2895-1.6806 5.694-2.9096 10.941-5.601 14.875-7.6814 1.965-1.0396 3.613-1.9321 4.828-2.6257.607-.3462 1.117-.6495 1.51-.9008.353-.2256.723-.4786.944-.7141.627-.6696.883-1.454.527-2.2341-.313-.6862-1.009-1.1506-1.627-1.4567-1.251-.6189-2.969-.9701-4.135-1.1202z" fill="url(#b)"/><path d="m25.6772 38.3817c-.2452-.5364.0831-1.1352.7332-1.3375 12.7912-3.9803 25.6474-7.8318 27.6573-8.365 4.4498-1.1806 7.8768-.7446 11.4564-.0231l.0518.0095c.0442.008.1104.0201.1991.0363.1774.0326.4449.0819.8065.1492.7232.1345 1.8231.341 3.332.6292 3.0178.5764 7.6723 1.4796 14.2236 2.7878.6754.1349 1.0904.6959.9269 1.2531-.1634.5572-.8434.8996-1.5188.7647-6.5439-1.3067-11.1902-2.2083-14.1992-2.783-1.5045-.2874-2.5997-.493-3.3181-.6266-.3592-.0669-.6242-.1157-.799-.1478-.0874-.016-.1523-.0279-.1952-.0357l-.078-.0141-.0148-.003c-3.398-.6856-6.2925-1.0311-10.1029-.0201-1.9375.514-14.7284 4.3445-27.5396 8.331-.6501.2024-1.376-.0685-1.6212-.6049z" fill="url(#c)"/><path d="m176.422 1.52281c.264.78531-.159 1.63576-.944 1.89953-4.84 1.62545-15.707 5.62497-29.809 10.90886-27.827 10.4268-68.2272 25.8464-99.2909 37.7024-20.3332 7.7606-36.66613 13.9943-42.85412 16.3017-.77622.2894-1.6401-.1052-1.92953-.8814-.28944-.7763.10518-1.6401.8814-1.9296 6.22352-2.3206 22.55815-8.5551 42.88775-16.3144 31.0265-11.8421 71.3584-27.2358 99.2534-37.688 14.085-5.27775 25.006-9.29794 29.905-10.943427.786-.263771 1.636.159022 1.9.944337z" fill="url(#d)"/><path d="m23.1832 36.3651c-.2477-.7905.1923-1.6321.9828-1.8799 13.2733-4.1595 26.6143-8.1844 28.6999-8.7416 4.6146-1.233 8.1618-.7762 11.8793-.0208l.0165.0033.0163.0037.3964.0892c.2629.0589.6541.1462 1.1663.2595 1.0243.2267 2.5323.5576 4.4648.9739 3.8651.8326 9.4277 2.0066 16.2145 3.3714.8122.1633 1.3382.9541 1.1749 1.7662-.1633.8122-.9541 1.3382-1.7663 1.1749-6.802-1.3679-12.3782-2.5447-16.2548-3.3798-1.9384-.4175-3.4519-.7496-4.4814-.9775-.5148-.1139-.9085-.2018-1.1739-.2612l-.3867-.087c-3.5216-.7148-6.5343-1.0748-10.4915-.0175-2.0105.5372-15.2832 4.5401-28.5772 8.7061-.7905.2477-1.6322-.1923-1.8799-.9829z" fill="url(#e)"/><path d="m94.192 34.296c.1689-.811.9634-1.3316 1.7744-1.1626l.1216.0252.3584.0739c.3144.0646.7764.1591 1.3658.2784 1.1789.2386 2.8668.5763 4.9018.9723 4.063.7908 9.504 1.8132 15.031 2.743 1.202.1559 2.987.5218 4.297 1.1742.617.3075 1.442.828 1.836 1.6979.219.4855.282 1.0348.141 1.5926-.135.5291-.429.973-.767 1.3371-.261.2802-.675.5614-1.033.7917-.411.2651-.944.5837-1.574.946-1.263.7261-2.975 1.6596-5.015 2.7462-4.082 2.1745-9.529 4.9876-15.436 8.0281-1.1235.5781-2.2633 1.1643-3.4138 1.756-10.9688 5.6418-22.8998 11.7785-30.5339 16.0158-.7243.402-1.6374.1407-2.0395-.5836-.402-.7243-.1407-1.6374.5836-2.0395 7.6789-4.2621 19.6554-10.4221 30.6099-16.0565 1.1536-.5933 2.2958-1.1808 3.4205-1.7596 5.9112-3.0422 11.3382-5.8456 15.3992-8.0085 2.032-1.0822 3.709-1.9977 4.93-2.6993.612-.3516 1.094-.6415 1.444-.8669.091-.0587.167-.1088.228-.1508-.036-.0195-.075-.04-.118-.0615-.87-.4335-2.28-.7482-3.369-.8875l-.03-.0038-.029-.0049c-5.571-.9368-11.051-1.9664-15.136-2.7615-2.043-.3976-3.7379-.7367-4.9229-.9766-.5925-.1199-1.0576-.215-1.3747-.2802l-.3624-.0747-.1248-.0259c-.0001-.0001-.0006-.0002.2534-1.2193l-.2534 1.2193c-.811-.169-1.3321-.9635-1.1632-1.7745z" fill="url(#f)"/></g></svg>

<svg viewBox="0 0 177 75" fill="none" xmlns="http://www.w3.org/2000/svg">
<path fill-rule="evenodd" clip-rule="evenodd" d="M175.089 5.15023C175.349 5.68173 175.038 6.28677 174.394 6.50163C171.54 7.45346 164.221 10.2218 155.846 13.3892C150.537 15.397 144.804 17.5651 139.516 19.5326C112.698 29.5107 73.7664 44.2656 43.8316 55.6106C24.2369 63.0368 8.49721 69.002 2.53338 71.2102C1.89943 71.4449 1.15487 71.2112 0.870371 70.6882C0.585867 70.1651 0.869148 69.5508 1.5031 69.3161C7.49999 67.0957 23.2414 61.1298 42.8328 53.7046C72.7331 42.3725 111.601 27.6416 138.482 17.6401C143.695 15.7003 149.381 13.5501 154.671 11.5494C163.113 8.35681 170.548 5.54505 173.451 4.57691C174.095 4.36205 174.828 4.61874 175.089 5.15023Z" fill="url(#paint0_linear_767_155764)"/>
<path fill-rule="evenodd" clip-rule="evenodd" d="M92.8789 36.7819C93.0558 36.2275 93.7439 35.8963 94.4159 36.0422L94.0957 37.0461L93.7755 38.0499C93.1035 37.904 92.7021 37.3363 92.8789 36.7819ZM117.553 40.5322C112.233 39.6432 106.455 38.5223 101.999 37.6217C99.7681 37.1708 97.8713 36.7758 96.5325 36.4934C95.8632 36.3523 95.3334 36.2394 94.9712 36.1618C94.7902 36.123 94.651 36.093 94.5573 36.0728C94.5104 36.0627 94.4749 36.055 94.4512 36.0499L94.4159 36.0422C94.4158 36.0422 94.4159 36.0422 94.0957 37.0461C93.7755 38.0499 93.7755 38.0499 93.7757 38.05L93.8127 38.058C93.837 38.0633 93.8732 38.0711 93.9207 38.0813C94.0158 38.1018 94.1563 38.1321 94.3388 38.1712C94.7038 38.2494 95.2367 38.363 95.9094 38.5048C97.2548 38.7885 99.1598 39.1853 101.4 39.6381C105.878 40.5431 111.706 41.6739 117.082 42.5717L117.111 42.5765L117.141 42.5802C118.184 42.7126 119.544 43.0126 120.394 43.4329C120.82 43.6438 120.938 43.7974 120.958 43.8371C120.958 43.8376 120.958 43.8382 120.958 43.8389C120.953 43.8569 120.927 43.9348 120.797 44.0738C120.797 44.0734 120.796 44.0742 120.793 44.0765C120.771 44.0944 120.641 44.2001 120.302 44.4168C119.961 44.6349 119.493 44.9139 118.903 45.2508C117.724 45.9234 116.106 46.8003 114.148 47.836C110.233 49.9063 105.002 52.5894 99.3063 55.5003C98.2226 56.0542 97.1219 56.6163 96.0104 57.184C85.4531 62.576 73.9135 68.4696 66.5155 72.547C65.9377 72.8655 65.7822 73.5101 66.1682 73.9868C66.5541 74.4635 67.3354 74.5918 67.9132 74.2733C75.2721 70.2175 86.7718 64.3442 97.3415 58.9458C98.4503 58.3795 99.5489 57.8184 100.631 57.2652C106.325 54.3556 111.572 51.6642 115.506 49.5838C117.471 48.5442 119.119 47.6517 120.334 46.9581C120.941 46.6119 121.451 46.3086 121.844 46.0573C122.197 45.8317 122.567 45.5787 122.788 45.3432C123.415 44.6736 123.671 43.8892 123.315 43.1091C123.002 42.4229 122.306 41.9585 121.688 41.6524C120.437 41.0335 118.719 40.6823 117.553 40.5322Z" fill="url(#paint1_linear_767_155764)"/>
<path fill-rule="evenodd" clip-rule="evenodd" d="M25.6772 38.3817C25.432 37.8453 25.7603 37.2465 26.4104 37.0442C39.2016 33.0639 52.0578 29.2124 54.0677 28.6792C58.5175 27.4986 61.9445 27.9346 65.5241 28.6561L65.5759 28.6656C65.6201 28.6736 65.6863 28.6857 65.775 28.7019C65.9524 28.7345 66.2199 28.7838 66.5815 28.8511C67.3047 28.9856 68.4046 29.1921 69.9135 29.4803C72.9313 30.0567 77.5858 30.9599 84.1371 32.2681C84.8125 32.403 85.2275 32.964 85.064 33.5212C84.9006 34.0784 84.2206 34.4208 83.5452 34.2859C77.0013 32.9792 72.355 32.0776 69.346 31.5029C67.8415 31.2155 66.7463 31.0099 66.0279 30.8763C65.6687 30.8094 65.4037 30.7606 65.2289 30.7285C65.1415 30.7125 65.0766 30.7006 65.0337 30.6928L64.9557 30.6787L64.9409 30.6757C61.5429 29.9901 58.6484 29.6446 54.838 30.6556C52.9005 31.1696 40.1096 35.0001 27.2984 38.9866C26.6483 39.189 25.9224 38.9181 25.6772 38.3817Z" fill="url(#paint2_linear_767_155764)"/>
<path fill-rule="evenodd" clip-rule="evenodd" d="M176.422 1.52281C176.686 2.30812 176.263 3.15857 175.478 3.42234C170.638 5.04779 159.771 9.04731 145.669 14.3312C117.842 24.758 77.4418 40.1776 46.3781 52.0336C26.0449 59.7942 9.71197 66.0279 3.52398 68.3353C2.74776 68.6247 1.88388 68.2301 1.59445 67.4539C1.30501 66.6776 1.69963 65.8138 2.47585 65.5243C8.69937 63.2037 25.034 56.9692 45.3636 49.2099C76.3901 37.3678 116.722 21.9741 144.617 11.5219C158.702 6.24415 169.623 2.22396 174.522 0.578473C175.308 0.314702 176.158 0.737495 176.422 1.52281Z" fill="url(#paint3_linear_767_155764)"/>
<path fill-rule="evenodd" clip-rule="evenodd" d="M23.1832 36.3651C22.9355 35.5746 23.3755 34.733 24.166 34.4852C37.4393 30.3257 50.7803 26.3008 52.8659 25.7436C57.4805 24.5106 61.0277 24.9674 64.7452 25.7228L64.7617 25.7261L64.778 25.7298L65.1744 25.819C65.4373 25.8779 65.8285 25.9652 66.3407 26.0785C67.365 26.3052 68.873 26.6361 70.8055 27.0524C74.6706 27.885 80.2332 29.059 87.02 30.4238C87.8322 30.5871 88.3582 31.3779 88.1949 32.19C88.0316 33.0022 87.2408 33.5282 86.4286 33.3649C79.6266 31.997 74.0504 30.8202 70.1738 29.9851C68.2354 29.5676 66.7219 29.2355 65.6924 29.0076C65.1776 28.8937 64.7839 28.8058 64.5185 28.7464L64.1318 28.6594C60.6102 27.9446 57.5975 27.5846 53.6403 28.6419C51.6298 29.1791 38.3571 33.182 25.0631 37.348C24.2726 37.5957 23.4309 37.1557 23.1832 36.3651Z" fill="url(#paint4_linear_767_155764)"/>
<path fill-rule="evenodd" clip-rule="evenodd" d="M94.192 34.296C94.3609 33.485 95.1554 32.9644 95.9664 33.1334L96.088 33.1586L96.4464 33.2325C96.7608 33.2971 97.2228 33.3916 97.8122 33.5109C98.9911 33.7495 100.679 34.0872 102.714 34.4832C106.777 35.274 112.218 36.2964 117.745 37.2262C118.947 37.3821 120.732 37.748 122.042 38.4004C122.659 38.7079 123.484 39.2284 123.878 40.0983C124.097 40.5838 124.16 41.1331 124.019 41.6909C123.884 42.22 123.59 42.6639 123.252 43.028C122.991 43.3082 122.577 43.5894 122.219 43.8197C121.808 44.0848 121.275 44.4034 120.645 44.7657C119.382 45.4918 117.67 46.4253 115.63 47.5119C111.548 49.6864 106.101 52.4995 100.194 55.54C99.0705 56.1181 97.9307 56.7043 96.7802 57.296C85.8114 62.9378 73.8804 69.0745 66.2463 73.3118C65.522 73.7138 64.6089 73.4525 64.2068 72.7282C63.8048 72.0039 64.0661 71.0908 64.7904 70.6887C72.4693 66.4266 84.4458 60.2666 95.4003 54.6322C96.5539 54.0389 97.6961 53.4514 98.8208 52.8726C104.732 49.8304 110.159 47.027 114.22 44.8641C116.252 43.7819 117.929 42.8664 119.15 42.1648C119.762 41.8132 120.244 41.5233 120.594 41.2979C120.685 41.2392 120.761 41.1891 120.822 41.1471C120.786 41.1276 120.747 41.1071 120.704 41.0856C119.834 40.6521 118.424 40.3374 117.335 40.1981L117.305 40.1943L117.276 40.1894C111.705 39.2526 106.225 38.223 102.14 37.4279C100.097 37.0303 98.4021 36.6912 97.2171 36.4513C96.6246 36.3314 96.1595 36.2363 95.8424 36.1711L95.48 36.0964L95.3552 36.0705C95.3551 36.0704 95.3546 36.0703 95.6086 34.8512L95.3552 36.0705C94.5442 35.9015 94.0231 35.107 94.192 34.296Z" fill="url(#paint5_linear_767_155764)"/>
<defs>
<linearGradient id="paint0_linear_767_155764" x1="-9.53808" y1="81.614" x2="-4.38982" y2="-3.46044" gradientUnits="userSpaceOnUse">
<stop offset="0.202924" stop-color="#F6FBF7" stop-opacity="0"/>
<stop offset="0.302721" stop-color="#F6F8FB"/>
<stop offset="0.770833" stop-color="#EEF3FA"/>
<stop offset="0.970684" stop-color="#EEF3FA" stop-opacity="0"/>
</linearGradient>
<linearGradient id="paint1_linear_767_155764" x1="79.7816" y1="80.9295" x2="67.5256" y2="44.5456" gradientUnits="userSpaceOnUse">
<stop offset="0.202924" stop-color="#F6F8FB" stop-opacity="0"/>
<stop offset="0.565962" stop-color="#F6F8FB"/>
<stop offset="0.779906" stop-color="#EEF3FA"/>
<stop offset="1" stop-color="#EEF3FA"/>
</linearGradient>
<linearGradient id="paint2_linear_767_155764" x1="16.697" y1="23.34" x2="80.0411" y2="9.51415" gradientUnits="userSpaceOnUse">
<stop offset="0.116934" stop-color="#F6F8FB" stop-opacity="0"/>
<stop offset="0.315365" stop-color="#F6F8FB"/>
<stop offset="0.779906" stop-color="#EEF3FA"/>
<stop offset="1" stop-color="#EEF3FA"/>
</linearGradient>
<linearGradient id="paint3_linear_767_155764" x1="-3.77219" y1="73.0565" x2="161.663" y2="-20.1442" gradientUnits="userSpaceOnUse">
<stop offset="0.0610648" stop-color="#CF9EFF" stop-opacity="0"/>
<stop offset="0.281259" stop-color="#CF9EFF" stop-opacity="0.34"/>
<stop offset="0.486626" stop-color="#CF9EFF"/>
<stop offset="0.902699" stop-color="#CF9EFF"/>
<stop offset="1" stop-color="#CF9EFF" stop-opacity="0"/>
</linearGradient>
<linearGradient id="paint4_linear_767_155764" x1="93.3619" y1="26.4072" x2="47.1857" y2="-9.67591" gradientUnits="userSpaceOnUse">
<stop offset="0.227656" stop-color="#CF9EFF"/>
<stop offset="0.53213" stop-color="#CF9EFF" stop-opacity="0.35"/>
<stop offset="0.837782" stop-color="#CF9EFF" stop-opacity="0"/>
</linearGradient>
<linearGradient id="paint5_linear_767_155764" x1="89.0364" y1="25.0741" x2="97.2544" y2="72.6111" gradientUnits="userSpaceOnUse">
<stop offset="0.236751" stop-color="#CF9EFF"/>
<stop offset="0.677083" stop-color="#CF9EFF" stop-opacity="0"/>
</linearGradient>
</defs>
</svg>
